icons/bhi_lead-circle.svg

<svg xmlns="http://www.w3.org/2000/svg" viewBox="0 0 512 512" enable-background="new 0 0 512 512"><path fill="#010101" d="M256.1 512.3c-141 0-256.3-115.3-256.3-256.3s115.3-256.2 256.3-256.2 256.2 115.3 256.2 256.2-117.4 256.3-256.2 256.3zm0-471.9c-121.7 0-219.9 96.1-219.9 217.8s98.2 217.8 217.7 217.8 217.8-98.2 217.8-217.8-96-217.8-215.6-217.8zM275.3 281.7c10.7-10.7 10.7-29.9 0-42.7-10.7-10.7-29.9-10.7-42.7 0-8.5 8.5-10.7 19.2-8.5 27.8l-23.5 23.5c-12.8-23.5-10.7-53.4 8.5-72.6 23.5-23.5 61.9-23.5 85.4 0 17.1 17.1 21.4 40.6 14.9 59.8l23.5 23.5c17.1-34.2 12.8-76.9-17.1-104.6-34.2-34.2-91.8-34.2-126 0-32 32-34.2 81.1-10.7 115.3l-21.4 21.4c-36.3-47-34.2-115.3 10.7-158 47-47 121.7-47 168.7 0 40.6 40.6 44.8 102.5 17.1 147.3l21.4 21.4c40.6-57.7 34.2-138.8-17.1-190.1-57.7-57.7-153.8-57.7-211.4 0s-57.7 153.8 0 211.4l10.7 10.7 87.6-87.6c10.7 4.1 21.3 2 29.9-6.5z"/></svg>

<?xml version="1.0" encoding="utf-8"?>
<!-- Generator: Adobe Illustrator 19.2.0, SVG Export Plug-In . SVG Version: 6.00 Build 0)  -->
<svg version="1.1" id="Layer_1" xmlns="http://www.w3.org/2000/svg" xmlns:xlink="http://www.w3.org/1999/xlink" x="0px" y="0px"
	 viewBox="0 0 512 512" enable-background="new 0 0 512 512" xml:space="preserve">
<g>
	<path fill="#010101" d="M256.1,512.3C115.1,512.3-0.2,397-0.2,256S115.1-0.2,256.1-0.2S512.3,115.1,512.3,256
		S394.9,512.3,256.1,512.3z M256.1,40.4c-121.7,0-219.9,96.1-219.9,217.8S134.4,476,253.9,476s217.8-98.2,217.8-217.8
		S375.7,40.4,256.1,40.4z"/>
</g>
<path fill="#010101" d="M275.3,281.7c10.7-10.7,10.7-29.9,0-42.7c-10.7-10.7-29.9-10.7-42.7,0c-8.5,8.5-10.7,19.2-8.5,27.8
	l-23.5,23.5c-12.8-23.5-10.7-53.4,8.5-72.6c23.5-23.5,61.9-23.5,85.4,0c17.1,17.1,21.4,40.6,14.9,59.8l23.5,23.5
	c17.1-34.2,12.8-76.9-17.1-104.6c-34.2-34.2-91.8-34.2-126,0c-32,32-34.2,81.1-10.7,115.3l-21.4,21.4c-36.3-47-34.2-115.3,10.7-158
	c47-47,121.7-47,168.7,0c40.6,40.6,44.8,102.5,17.1,147.3l21.4,21.4c40.6-57.7,34.2-138.8-17.1-190.1c-57.7-57.7-153.8-57.7-211.4,0
	s-57.7,153.8,0,211.4l10.7,10.7l87.6-87.6C256.1,292.3,266.7,290.2,275.3,281.7z"/>
</svg>
